X:900
T: Pride of Ahamore
T: P\'earla an Achaidh Mh\'oir
S: B.Breathnach: "Ceol Rince na hEireann" II/272
Z: B.Black
L: 1/8
M: 4/4
R: reel
K: G
AG|(3FED FA dfed|(3cBA BG EFGE|(3FED FA dfed|cABG E2 D2|
(3FED FA dfed|cABG EFGE|(3FED FA dfed|cABG E2 D ||
E|(3FED AD FGAB|cBcG EFGE|(3FED AF GABc|dABG E2 D2|
(3FED AD FGAB|cBcG EFGE|(3FED AF FGAB|cBcG E2 D2 ||
